src/images/bg/train/rblev.svg

<svg fill="none" height="79" viewBox="0 0 64 79" width="64" xmlns="http://www.w3.org/2000/svg" xmlns:xlink="http://www.w3.org/1999/xlink"><linearGradient id="a" gradientUnits="userSpaceOnUse" x1="17.3924" x2="46.6318" y1="69.2314" y2="9.2818"><stop offset=".3" stop-color="#e3cfcc"/><stop offset="1" stop-color="#b07e6e"/></linearGradient><path clip-rule="evenodd" d="m27.6305 5.83317.9031 14.02533 2.5692 4.7467 1.202 48.862 1.1213 5.32 2.2971-4.7097-.1419-49.3018 2.5514-5.231-2.0037-16.78735-5.7806-2.4967z" fill="url(#a)" fill-rule="evenodd"/></svg>

<svg width="64" height="79" viewBox="0 0 64 79" fill="none" xmlns="http://www.w3.org/2000/svg">
<path fill-rule="evenodd" clip-rule="evenodd" d="M27.6305 5.83317L28.5336 19.8585L31.1028 24.6052L32.3048 73.4672L33.4261 78.7872L35.7232 74.0775L35.5813 24.7757L38.1327 19.5447L36.129 2.75735L30.3484 0.26065L27.6305 5.83317Z" fill="url(#paint0_linear)"/>
<defs>
<linearGradient id="paint0_linear" x1="17.3924" y1="69.2314" x2="46.6318" y2="9.2818" gradientUnits="userSpaceOnUse">
<stop offset="0.3" stop-color="#E3CFCC"/>
<stop offset="1" stop-color="#B07E6E"/>
</linearGradient>
</defs>
</svg>
